images/our-work__icon.svg

<svg width="42" height="42" viewBox="0 0 42 42" fill="none" xmlns="http://www.w3.org/2000/svg">
<path d="M21 27.7201C18.4427 27.7201 15.9901 26.7042 14.1817 24.8959C12.3734 23.0876 11.3575 20.635 11.3575 18.0776V6.38765C11.3309 6.02647 11.3309 5.66382 11.3575 5.30265C11.3705 5.1897 11.4058 5.08046 11.4614 4.98128C11.517 4.8821 11.5917 4.79497 11.6813 4.72494C11.7708 4.65492 11.8734 4.6034 11.9831 4.57339C12.0928 4.54339 12.2073 4.53548 12.32 4.55015C12.5494 4.57654 12.759 4.69252 12.9033 4.8728C13.0475 5.05309 13.1146 5.28308 13.09 5.51265C13.0721 5.80404 13.0721 6.09626 13.09 6.38765V18.0776C13.2233 20.0755 14.1109 21.948 15.5731 23.3159C17.0353 24.6838 18.9627 25.4449 20.965 25.4449C22.9673 25.4449 24.8948 24.6838 26.3569 23.3159C27.8191 21.948 28.7068 20.0755 28.84 18.0776V6.38765C28.858 6.09626 28.858 5.80404 28.84 5.51265C28.8122 5.28058 28.8777 5.04696 29.0221 4.86318C29.1665 4.67939 29.378 4.5605 29.61 4.53265C29.8421 4.5048 30.0757 4.57028 30.2595 4.71468C30.4433 4.85909 30.5622 5.07058 30.59 5.30265C30.6167 5.66382 30.6167 6.02647 30.59 6.38765V18.0776C30.5901 20.6259 29.5814 23.0706 27.7844 24.8774C25.9874 26.6843 23.5483 27.7063 21 27.7201Z" fill="white"/>
<path d="M30.7125 17.0102C30.5508 17.0065 30.3933 16.958 30.2575 16.8702L29.3125 16.3102C29.1129 16.1895 28.9695 15.9945 28.9137 15.7681C28.8579 15.5416 28.8943 15.3023 29.015 15.1027C29.1357 14.9031 29.3307 14.7597 29.5571 14.7039C29.7836 14.6481 30.0229 14.6845 30.2225 14.8052L30.94 15.2427C36.3475 15.0677 37.38 8.66271 37.5725 6.28271H4.41C4.6025 8.68021 5.5825 15.0327 11.06 15.2427L11.7775 14.8052C11.8763 14.7455 11.9859 14.7058 12.1001 14.6884C12.2143 14.671 12.3307 14.6763 12.4429 14.7039C12.555 14.7315 12.6606 14.7809 12.7536 14.8494C12.8466 14.9178 12.9252 15.0039 12.985 15.1027C13.0448 15.2015 13.0845 15.3112 13.1018 15.4253C13.1192 15.5395 13.114 15.656 13.0863 15.7681C13.0587 15.8802 13.0093 15.9858 12.9408 16.0788C12.8724 16.1718 12.7863 16.2505 12.6875 16.3102L11.7425 16.8702C11.6067 16.958 11.4492 17.0065 11.2875 17.0102C4.445 17.0102 2.625 9.41521 2.625 5.40771C2.625 5.17565 2.71719 4.95309 2.88128 4.789C3.04538 4.6249 3.26794 4.53271 3.5 4.53271H38.5C38.7321 4.53271 38.9546 4.6249 39.1187 4.789C39.2828 4.95309 39.375 5.17565 39.375 5.40771C39.375 9.41521 37.555 17.0102 30.7125 17.0102Z" fill="white"/>
<path d="M21 37.4677C20.7679 37.4677 20.5454 37.3755 20.3813 37.2114C20.2172 37.0473 20.125 36.8248 20.125 36.5927V26.8452C20.125 26.6132 20.2172 26.3906 20.3813 26.2265C20.5454 26.0624 20.7679 25.9702 21 25.9702C21.2321 25.9702 21.4546 26.0624 21.6187 26.2265C21.7828 26.3906 21.875 26.6132 21.875 26.8452V36.5927C21.875 36.8248 21.7828 37.0473 21.6187 37.2114C21.4546 37.3755 21.2321 37.4677 21 37.4677Z" fill="white"/>
<path d="M30.7476 37.4678H13.2476C13.0155 37.4678 12.7929 37.3756 12.6288 37.2115C12.4647 37.0474 12.3726 36.8248 12.3726 36.5928C12.3726 36.3607 12.4647 36.1381 12.6288 35.9741C12.7929 35.81 13.0155 35.7178 13.2476 35.7178H30.7476C30.9796 35.7178 31.2022 35.81 31.3663 35.9741C31.5304 36.1381 31.6226 36.3607 31.6226 36.5928C31.6226 36.8248 31.5304 37.0474 31.3663 37.2115C31.2022 37.3756 30.9796 37.4678 30.7476 37.4678Z" fill="white"/>
</svg>

<svg width="42" height="42" fill="none" xmlns="http://www.w3.org/2000/svg"><path d="M21 27.72a9.643 9.643 0 0 1-9.643-9.642V6.388a7.386 7.386 0 0 1 0-1.085.858.858 0 0 1 .963-.753.875.875 0 0 1 .77.963 7.135 7.135 0 0 0 0 .875v11.69a7.893 7.893 0 0 0 15.75 0V6.388a7.096 7.096 0 0 0 0-.875.882.882 0 0 1 1.75-.21c.027.36.027.723 0 1.085v11.69A9.642 9.642 0 0 1 21 27.72Z" fill="#fff"/><path d="M30.712 17.01a.875.875 0 0 1-.454-.14l-.945-.56a.88.88 0 0 1 .91-1.505l.717.438c5.407-.175 6.44-6.58 6.632-8.96H4.41c.192 2.397 1.172 8.75 6.65 8.96l.717-.438a.88.88 0 0 1 .91 1.505l-.944.56a.875.875 0 0 1-.456.14c-6.842 0-8.662-7.595-8.662-11.602a.875.875 0 0 1 .875-.875h35a.875.875 0 0 1 .875.875c0 4.007-1.82 11.602-8.663 11.602ZM21 37.468a.875.875 0 0 1-.875-.875v-9.748a.875.875 0 0 1 1.75 0v9.748a.875.875 0 0 1-.875.875Z" fill="#fff"/><path d="M30.748 37.468h-17.5a.875.875 0 1 1 0-1.75h17.5a.875.875 0 0 1 0 1.75Z" fill="#fff"/></svg>
